Obsidian/status/16s/skype-status-connecting-2.svg

<svg height="16" width="16" xmlns="http://www.w3.org/2000/svg"><path d="m4.5 1a3.5 3.5 0 0 0 -3.5 3.5 3.5 3.5 0 0 0 1.0859375 2.5292969 6 6 0 0 0 -.0859375.9707031 6 6 0 0 0 6 6 6 6 0 0 0 .9707031-.082031 3.5 3.5 0 0 0 2.5292969 1.082031 3.5 3.5 0 0 0 3.5-3.5 3.5 3.5 0 0 0 -1.085938-2.5292969 6 6 0 0 0 .085938-.9707031 6 6 0 0 0 -6-6 6 6 0 0 0 -.9707031.0820312 3.5 3.5 0 0 0 -2.5292969-1.0820312zm3.5 3a1.0001 1.0001 0 1 1 0 2c-1.1666667 0-1.4387455.3980885-1.7050781 1.0195312-.126326.2947607-.1966097.6424711-.2382813.9804688h.9433594l-2 3-2-3h1.0371094c.045183-.5227876.1491047-1.1421819.4179687-1.7695312.4836674-1.1285574 1.7115886-2.2304688 3.5449219-2.2304688zm3.013672 1 2 3h-1.050781c-.042614.5259779-.140168 1.1296326-.410157 1.765625-.479427 1.129354-1.7057407 2.234375-3.5390621 2.234375a1.0001 1.0001 0 1 1 0-2c1.1666765 0 1.4338135-.3950291 1.6972656-1.015625.1254867-.2956002.1958285-.6446358.2363281-.984375h-.9335937z" fill="#d3dae3"/></svg>

<svg xmlns="http://www.w3.org/2000/svg" width="16" height="16" version="1">
 <defs>
  <style id="current-color-scheme" type="text/css">
   .ColorScheme-Text { color:#d3dae3; } .ColorScheme-Highlight { color:#5294e2; }
  </style>
 </defs>
 <path style="fill:currentColor" class="ColorScheme-Text" d="M 4.5 1 A 3.5 3.5 0 0 0 1 4.5 A 3.5 3.5 0 0 0 2.0859375 7.0292969 A 6 6 0 0 0 2 8 A 6 6 0 0 0 8 14 A 6 6 0 0 0 8.9707031 13.917969 A 3.5 3.5 0 0 0 11.5 15 A 3.5 3.5 0 0 0 15 11.5 A 3.5 3.5 0 0 0 13.914062 8.9707031 A 6 6 0 0 0 14 8 A 6 6 0 0 0 8 2 A 6 6 0 0 0 7.0292969 2.0820312 A 3.5 3.5 0 0 0 4.5 1 z M 8 4 A 1.0001 1.0001 0 1 1 8 6 C 6.8333333 6 6.5612545 6.3980885 6.2949219 7.0195312 C 6.1685959 7.3142919 6.0983122 7.6620023 6.0566406 8 L 7 8 L 5 11 L 3 8 L 4.0371094 8 C 4.0822924 7.4772124 4.1862141 6.8578181 4.4550781 6.2304688 C 4.9387455 5.1019114 6.1666667 4 8 4 z M 11.013672 5 L 13.013672 8 L 11.962891 8 C 11.920277 8.5259779 11.822723 9.1296326 11.552734 9.765625 C 11.073307 10.894979 9.8469933 12 8.0136719 12 A 1.0001 1.0001 0 1 1 8.0136719 10 C 9.1803484 10 9.4474854 9.6049709 9.7109375 8.984375 C 9.8364242 8.6887748 9.906766 8.3397392 9.9472656 8 L 9.0136719 8 L 11.013672 5 z"/>
 <path style="fill:currentColor" class="ColorScheme-Text" d="M -25.069,-9.0812"/>
</svg>
